X: 8
T: Gongchan dang xiang taiyang
L: 1/8
M: 2/4
K: G
G d e/ d/ e/ d/ [I:setbarnb 1]| 
d e/ d/B2 | 
d3e | 
B B e/ d/ B- | 
B4 | 
e/ e/ d e/ d/ B | 
ed2e | 
B4- | 
B4 | 
e d B/ d/ e/ d/ | 
G d e/ d/ B | 
d3e | 
d> e G d | 
B4 | 
e d B d- | 
d3e | 
B4- | 
B4 |]

@@@ Tune index: 8676
